;FLAVOR:Marlin
;TIME:3924
;Filament used: 3.08783m
;Layer height: 0.2
;MINX:87
;MINY:62.5
;MINZ:0.2
;MAXX:148
;MAXY:172.5
;MAXZ:4
;Generated with Cura_SteamEngine 5.0.0
M140 S50
M105
M190 S50
M104 S200
M105
M109 S200
M82 ;absolute extrusion mode
; Ender 3 Custom Start G-code
G92 E0 ; Reset Extruder
G28 ; Home all axes
G1 Z2.0 F3000 ; Move Z Axis up little to prevent scratching of Heat Bed
G1 X0.1 Y20 Z0.3 F5000.0 ; Move to start position
G1 X0.1 Y200.0 Z0.3 F1500.0 E15 ; Draw the first line
G1 X0.4 Y200.0 Z0.3 F5000.0 ; Move to side a little
G1 X0.4 Y20 Z0.3 F1500.0 E30 ; Draw the second line
G92 E0 ; Reset Extruder
G1 Z2.0 F3000 ; Move Z Axis up little to prevent scratching of Heat Bed
G1 X5 Y20 Z0.3 F5000.0 ; Move over to prevent blob squish
G92 E0
G92 E0
G1 F2700 E-5
;LAYER_COUNT:20
;LAYER:0
M107
G0 F6000 X88.996 Y67.203 Z0.2
G0 X87.001 Y74.025
;TYPE:SKIRT
G1 F2700 E0
G1 F1200 X87.01 Y73.36 E0.02212
G1 X87.063 Y72.424 E0.0533
G1 X87.195 Y71.495 E0.08451
G1 X87.406 Y70.581 E0.11571
G1 X87.694 Y69.689 E0.14689
G1 X88.057 Y68.824 E0.17809
G1 X88.492 Y67.993 E0.20928
G1 X88.996 Y67.203 E0.24045
G1 X89.566 Y66.458 E0.27165
G1 X90.198 Y65.764 E0.30287
G1 X90.886 Y65.127 E0.33405
G1 X91.626 Y64.551 E0.36524
G1 X92.412 Y64.039 E0.39644
G1 X93.239 Y63.597 E0.42763
G1 X94.101 Y63.227 E0.45883
G1 X94.991 Y62.931 E0.49003
G1 X95.903 Y62.713 E0.52122
G1 X96.83 Y62.572 E0.5524
G1 X97.701 Y62.513 E0.58144
G1 X98.33 Y62.5 E0.60236
G1 X136.293 Y62.5 E1.86502
G1 X137.149 Y62.511 E1.89349
G1 X138.085 Y62.565 E1.92467
G1 X139.013 Y62.697 E1.95585
G1 X139.927 Y62.909 E1.98706
G1 X140.819 Y63.198 E2.01824
G1 X141.684 Y63.561 E2.04944
G1 X142.514 Y63.997 E2.08063
G1 X143.305 Y64.502 E2.11184
G1 X144.049 Y65.073 E2.14303
G1 X144.742 Y65.705 E2.17423
G1 X145.379 Y66.393 E2.20541
G1 X145.954 Y67.134 E2.23661
G1 X146.465 Y67.92 E2.26779
G1 X146.907 Y68.748 E2.29901
G1 X147.276 Y69.61 E2.3302
G1 X147.571 Y70.5 E2.36138
G1 X147.789 Y71.412 E2.39257
G1 X147.929 Y72.34 E2.42378
G1 X147.987 Y73.201 E2.45248
G1 X148 Y73.83 E2.47341
G1 X147.999 Y160.9 E5.36937
G1 X147.99 Y161.627 E5.39355
G1 X147.939 Y162.564 E5.42476
G1 X147.807 Y163.492 E5.45594
G1 X147.598 Y164.406 E5.48712
G1 X147.311 Y165.299 E5.51832
G1 X146.949 Y166.165 E5.54954
G1 X146.515 Y166.996 E5.58072
G1 X146.011 Y167.787 E5.61192
G1 X145.442 Y168.532 E5.6431
G1 X144.811 Y169.227 E5.67432
G1 X144.124 Y169.865 E5.7055
G1 X143.385 Y170.442 E5.73668
G1 X142.599 Y170.954 E5.76788
G1 X141.773 Y171.397 E5.79906
G1 X140.911 Y171.769 E5.83028
G1 X140.022 Y172.065 E5.86145
G1 X139.11 Y172.285 E5.89265
G1 X138.183 Y172.426 E5.92384
G1 X137.299 Y172.487 E5.95331
G1 X136.67 Y172.5 E5.97424
G1 X98.565 Y172.499 E7.24161
G1 X97.867 Y172.49 E7.26483
G1 X96.931 Y172.438 E7.29601
G1 X96.002 Y172.306 E7.32722
G1 X95.088 Y172.096 E7.35841
G1 X94.195 Y171.809 E7.38961
G1 X93.33 Y171.446 E7.42081
G1 X92.499 Y171.012 E7.45199
G1 X91.708 Y170.508 E7.48319
G1 X90.963 Y169.938 E7.51439
G1 X90.269 Y169.307 E7.54558
G1 X89.632 Y168.62 E7.57674
G1 X89.055 Y167.88 E7.60795
G1 X88.543 Y167.094 E7.63915
G1 X88.1 Y166.267 E7.67036
G1 X87.729 Y165.406 E7.70154
G1 X87.433 Y164.516 E7.73274
G1 X87.214 Y163.604 E7.76393
G1 X87.073 Y162.677 E7.79512
G1 X87.013 Y161.788 E7.82475
G1 X87 Y161.158 E7.84571
G1 X87.001 Y74.025 E10.74377
G0 F6000 X87.401 Y74.031
G1 F1200 X87.41 Y73.366 E10.76589
G1 X87.462 Y72.446 E10.79654
G1 X87.594 Y71.535 E10.82715
G1 X87.805 Y70.639 E10.85777
G1 X88.092 Y69.764 E10.8884
G1 X88.455 Y68.918 E10.91902
G1 X88.889 Y68.106 E10.94964
G1 X89.392 Y67.335 E10.98026
G1 X89.961 Y66.611 E11.01088
G1 X90.589 Y65.939 E11.04147
G1 X91.274 Y65.323 E11.07212
G1 X92.01 Y64.77 E11.10273
G1 X92.791 Y64.282 E11.13336
G1 X93.611 Y63.864 E11.16398
G1 X94.465 Y63.519 E11.19461
G1 X95.345 Y63.249 E11.22523
G1 X96.245 Y63.057 E11.25583
G1 X97.159 Y62.943 E11.28647
G1 X97.712 Y62.913 E11.30489
G1 X98.33 Y62.9 E11.32545
G1 X136.293 Y62.9 E12.5881
G1 X137.143 Y62.911 E12.61638
G1 X138.062 Y62.964 E12.64699
G1 X138.973 Y63.097 E12.67762
G1 X139.869 Y63.308 E12.70823
G1 X140.743 Y63.596 E12.73884
G1 X141.59 Y63.959 E12.76949
G1 X142.401 Y64.394 E12.8001
G1 X143.171 Y64.898 E12.83071
G1 X143.895 Y65.467 E12.86133
G1 X144.567 Y66.097 E12.89197
G1 X145.182 Y66.782 E12.92259
G1 X145.735 Y67.518 E12.95321
G1 X146.222 Y68.299 E12.98382
G1 X146.639 Y69.12 E13.01445
G1 X146.984 Y69.974 E13.04508
G1 X147.253 Y70.854 E13.07569
G1 X147.445 Y71.755 E13.10633
G1 X147.558 Y72.668 E13.13693
G1 X147.596 Y73.532 E13.16569
G1 X147.599 Y160.895 E16.0714
G1 X147.59 Y161.622 E16.09558
G1 X147.539 Y162.541 E16.12619
G1 X147.408 Y163.453 E16.15684
G1 X147.198 Y164.349 E16.18744
G1 X146.912 Y165.224 E16.21806
G1 X146.551 Y166.071 E16.24868
G1 X146.117 Y166.883 E16.27931
G1 X145.615 Y167.655 E16.30994
G1 X145.047 Y168.38 E16.34057
G1 X144.419 Y169.053 E16.37118
G1 X143.735 Y169.669 E16.4018
G1 X143 Y170.223 E16.43241
G1 X142.22 Y170.712 E16.46303
G1 X141.4 Y171.131 E16.49366
G1 X140.547 Y171.477 E16.52428
G1 X139.667 Y171.748 E16.5549
G1 X138.767 Y171.941 E16.58552
G1 X137.853 Y172.056 E16.61616
G1 X137.288 Y172.087 E16.63498
G1 X136.67 Y172.1 E16.65553
G1 X98.57 Y172.099 E17.92275
G1 X97.872 Y172.09 E17.94596
G1 X96.953 Y172.038 E17.97658
G1 X96.042 Y171.907 E18.00719
G1 X95.146 Y171.697 E18.0378
G1 X94.271 Y171.41 E18.06843
G1 X93.424 Y171.048 E18.09906
G1 X92.612 Y170.614 E18.12969
G1 X91.841 Y170.112 E18.16029
G1 X91.116 Y169.544 E18.19092
G1 X90.443 Y168.915 E18.22156
G1 X89.828 Y168.231 E18.25215
G1 X89.274 Y167.496 E18.28276
G1 X88.786 Y166.715 E18.31339
G1 X88.367 Y165.895 E18.34402
G1 X88.021 Y165.042 E18.37464
G1 X87.751 Y164.162 E18.40525
G1 X87.558 Y163.261 E18.4359
G1 X87.444 Y162.348 E18.4665
G1 X87.413 Y161.777 E18.48552
G1 X87.4 Y161.158 E18.50611
G1 X87.401 Y74.031 E21.40397
G0 F6000 X87.801 Y74.036
G1 F1200 X87.81 Y73.371 E21.42609
G1 X87.862 Y72.469 E21.45614
G1 X87.994 Y71.576 E21.48617
G1 X88.204 Y70.698 E21.51619
G1 X88.491 Y69.841 E21.54625
G1 X88.853 Y69.014 E21.57628
G1 X89.286 Y68.222 E21.6063
G1 X89.788 Y67.471 E21.63634
G1 X90.355 Y66.767 E21.66641
G1 X90.981 Y66.117 E21.69642
G1 X91.662 Y65.524 E21.72646
G1 X92.394 Y64.994 E21.75652
G1 X93.169 Y64.531 E21.78654
G1 X93.982 Y64.138 E21.81658
G1 X94.827 Y63.818 E21.84663
G1 X95.696 Y63.575 E21.87664
G1 X96.584 Y63.409 E21.90669
G1 X97.723 Y63.313 E21.9447
G1 X98.33 Y63.3 E21.9649
G1 X136.293 Y63.3 E23.22755
G1 X137.137 Y63.311 E23.25563
G1 X138.039 Y63.364 E23.28568
G1 X138.932 Y63.496 E23.3157
G1 X139.81 Y63.707 E23.34574
G1 X140.666 Y63.995 E23.37578
G1 X141.493 Y64.357 E23.4058
G1 X142.285 Y64.792 E23.43586
G1 X143.036 Y65.294 E23.4659
G1 X143.739 Y65.861 E23.49594
G1 X144.389 Y66.488 E23.52598
G1 X144.981 Y67.17 E23.55601
G1 X145.511 Y67.901 E23.58605
G1 X145.973 Y68.677 E23.61608
G1 X146.366 Y69.49 E23.64612
G1 X146.684 Y70.335 E23.67615
G1 X146.927 Y71.205 E23.70619
G1 X147.092 Y72.093 E23.73623
G1 X147.187 Y73.223 E23.77395
G1 X147.2 Y73.83 E23.79414
G1 X147.199 Y160.89 E26.68977
G1 X147.19 Y161.617 E26.71395
G1 X147.139 Y162.519 E26.744
G1 X147.008 Y163.413 E26.77405
G1 X146.799 Y164.291 E26.80407
G1 X146.513 Y165.148 E26.83412
G1 X146.152 Y165.976 E26.86416
G1 X145.72 Y166.768 E26.89417
G1 X145.219 Y167.52 E26.92422
G1 X144.653 Y168.224 E26.95427
G1 X144.028 Y168.875 E26.98428
G1 X143.347 Y169.469 E27.01434
G1 X142.616 Y170 E27.04439
G1 X141.842 Y170.464 E27.0744
G1 X141.029 Y170.858 E27.10445
G1 X140.185 Y171.178 E27.13447
G1 X139.315 Y171.423 E27.16453
G1 X138.428 Y171.589 E27.19455
G1 X137.277 Y171.687 E27.23297
G1 X136.67 Y171.7 E27.25316
G1 X98.575 Y171.699 E28.52021
G1 X97.877 Y171.69 E28.54343
G1 X96.976 Y171.639 E28.57344
G1 X96.082 Y171.507 E28.6035
G1 X95.204 Y171.298 E28.63352
G1 X94.347 Y171.011 E28.66358
G1 X93.52 Y170.65 E28.69359
G1 X92.727 Y170.217 E28.72364
G1 X91.976 Y169.716 E28.75367
G1 X91.272 Y169.15 E28.78371
G1 X90.621 Y168.524 E28.81375
G1 X90.028 Y167.843 E28.84378
G1 X89.498 Y167.112 E28.87381
G1 X89.034 Y166.337 E28.90386
G1 X88.64 Y165.524 E28.93391
G1 X88.32 Y164.68 E28.96393
G1 X88.076 Y163.81 E28.99398
G1 X87.91 Y162.922 E29.02403
G1 X87.813 Y161.767 E29.06258
G1 X87.8 Y161.158 E29.08284
G1 X87.801 Y74.036 E31.98053
G1 F2700 E26.98053
;MESH:Case - Top.stl
G0 F6000 X97.335 Y74.036
G0 X98.43 Y74.036
G0 X98.58 Y160.92
G1 F2700 E31.98053
G0 F6000 X98.2 Y161.3
;TYPE:WALL-OUTER
G1 F1200 X136.8 Y161.3 E33.26437
G1 X136.8 Y93 E35.53604
G1 X136.8 Y73.7 E36.17796
G1 X98.2 Y73.7 E37.4618
G1 X98.2 Y161.3 E40.37539
G0 F6000 X98.6 Y160.9
;TYPE:WALL-INNER
G1 F1200 X136.4 Y160.9 E41.63262
G1 X136.4 Y93 E43.89098
G1 X136.4 Y74.1 E44.5196
G1 X98.6 Y74.1 E45.77683
G1 X98.6 Y160.9 E48.66381
G0 F6000 X98.96 Y160.54
;TYPE:SKIN
G1 F1200 X136.04 Y160.54 E49.8971
G1 X136.04 Y74.46 E52.76013
G1 X98.96 Y74.46 E53.99342
G1 X98.96 Y160.54 E56.85645
G0 F6000 X99.245 Y160.339
G1 F1200 X99.159 Y160.253 E56.86049
G0 F6000 X99.159 Y159.688
G1 F1200 X99.81 Y160.339 E56.89111
G0 F6000 X100.376 Y160.339
G1 F1200 X99.159 Y159.122 E56.94836
G0 F6000 X99.159 Y158.556
G1 F1200 X100.942 Y160.339 E57.03222
G0 F6000 X101.508 Y160.339
G1 F1200 X99.159 Y157.99 E57.14271
G0 F6000 X99.159 Y157.425
G1 F1200 X102.073 Y160.339 E57.27978
G0 F6000 X102.639 Y160.339
G1 F1200 X99.159 Y156.859 E57.44347
G0 F6000 X99.159 Y156.293
G1 F1200 X103.205 Y160.339 E57.63378
G0 F6000 X103.77 Y160.339
G1 F1200 X99.159 Y155.728 E57.85067
G0 F6000 X99.159 Y155.162
G1 F1200 X104.336 Y160.339 E58.09418
G0 F6000 X104.902 Y160.339
G1 F1200 X99.159 Y154.596 E58.36431
G0 F6000 X99.159 Y154.031
G1 F1200 X105.467 Y160.339 E58.66102
G0 F6000 X106.033 Y160.339
G1 F1200 X99.159 Y153.465 E58.98435
G0 F6000 X99.159 Y152.899
G1 F1200 X106.599 Y160.339 E59.33431
G0 F6000 X107.164 Y160.339
G1 F1200 X99.159 Y152.334 E59.71084
G0 F6000 X99.159 Y151.768
G1 F1200 X107.73 Y160.339 E60.11399
G0 F6000 X108.296 Y160.339
G1 F1200 X99.159 Y151.202 E60.54377
G0 F6000 X99.159 Y150.637
G1 F1200 X108.861 Y160.339 E61.00012
G0 F6000 X109.427 Y160.339
G1 F1200 X99.159 Y150.071 E61.48309
G0 F6000 X99.159 Y149.505
G1 F1200 X109.993 Y160.339 E61.99269
G0 F6000 X110.558 Y160.339
G1 F1200 X99.159 Y148.94 E62.52887
G0 F6000 X99.159 Y148.374
G1 F1200 X111.124 Y160.339 E63.09166
G0 F6000 X111.69 Y160.339
G1 F1200 X99.159 Y147.808 E63.68108
G0 F6000 X99.159 Y147.242
G1 F1200 X112.256 Y160.339 E64.29713
G0 F6000 X112.821 Y160.339
G1 F1200 X99.159 Y146.677 E64.93974
G0 F6000 X99.159 Y146.111
G1 F1200 X113.387 Y160.339 E65.60899
G0 F6000 X113.953 Y160.339
G1 F1200 X99.159 Y145.545 E66.30485
G0 F6000 X99.159 Y144.98
G1 F1200 X114.518 Y160.339 E67.02729
G0 F6000 X115.084 Y160.339
G1 F1200 X99.159 Y144.414 E67.77635
G0 F6000 X99.159 Y143.848
G1 F1200 X115.65 Y160.339 E68.55204
G0 F6000 X116.215 Y160.339
G1 F1200 X99.159 Y143.283 E69.3543
G0 F6000 X99.159 Y142.717
G1 F1200 X116.781 Y160.339 E70.18319
G0 F6000 X117.347 Y160.339
G1 F1200 X99.159 Y142.151 E71.03869
G0 F6000 X99.159 Y141.586
G1 F1200 X117.912 Y160.339 E71.92078
G0 F6000 X118.478 Y160.339
G1 F1200 X99.159 Y141.02 E72.82948
G0 F6000 X99.159 Y140.454
G1 F1200 X119.044 Y160.339 E73.76481
G0 F6000 X119.609 Y160.339
G1 F1200 X99.159 Y139.889 E74.72672
G0 F6000 X99.159 Y139.323
G1 F1200 X120.175 Y160.339 E75.71525
G0 F6000 X120.741 Y160.339
G1 F1200 X99.159 Y138.757 E76.7304
G0 F6000 X99.159 Y138.191
G1 F1200 X121.306 Y160.339 E77.77215
G0 F6000 X121.872 Y160.339
G1 F1200 X99.159 Y137.626 E78.8405
G0 F6000 X99.159 Y137.06
G1 F1200 X122.438 Y160.339 E79.93547
G0 F6000 X123.004 Y160.339
G1 F1200 X99.159 Y136.494 E81.05707
G0 F6000 X99.159 Y135.929
G1 F1200 X123.569 Y160.339 E82.20524
G0 F6000 X124.135 Y160.339
G1 F1200 X99.159 Y135.363 E83.38003
G0 F6000 X99.159 Y134.797
G1 F1200 X124.701 Y160.339 E84.58145
G0 F6000 X125.266 Y160.339
G1 F1200 X99.159 Y134.232 E85.80944
G0 F6000 X99.159 Y133.666
G1 F1200 X125.832 Y160.339 E87.06406
G0 F6000 X126.398 Y160.339
G1 F1200 X99.159 Y133.1 E88.3453
G0 F6000 X99.159 Y132.535
G1 F1200 X126.963 Y160.339 E89.65311
G0 F6000 X127.529 Y160.339
G1 F1200 X99.159 Y131.969 E90.98755
G0 F6000 X99.159 Y131.403
G1 F1200 X128.095 Y160.339 E92.34861
G0 F6000 X128.66 Y160.339
G1 F1200 X99.159 Y130.838 E93.73625
G0 F6000 X99.159 Y130.272
G1 F1200 X129.226 Y160.339 E95.15051
G0 F6000 X129.792 Y160.339
G1 F1200 X99.159 Y129.706 E96.59139
G0 F6000 X99.159 Y129.141
G1 F1200 X130.357 Y160.339 E98.05885
G0 F6000 X130.923 Y160.339
G1 F1200 X99.159 Y128.575 E99.55293
G0 F6000 X99.159 Y128.009
G1 F1200 X131.489 Y160.339 E101.07364
G0 F6000 X132.055 Y160.339
G1 F1200 X99.159 Y127.443 E102.62096
G0 F6000 X99.159 Y126.878
G1 F1200 X132.62 Y160.339 E104.19486
G0 F6000 X133.186 Y160.339
G1 F1200 X99.159 Y126.312 E105.79539
G0 F6000 X99.159 Y125.746
G1 F1200 X133.752 Y160.339 E107.42254
G0 F6000 X134.317 Y160.339
G1 F1200 X99.159 Y125.181 E109.07626
G0 F6000 X99.159 Y124.615
G1 F1200 X134.883 Y160.339 E110.75661
G0 F6000 X135.449 Y160.339
G1 F1200 X99.159 Y124.049 E112.46358
G0 F6000 X99.159 Y123.484
G1 F1200 X135.839 Y160.163 E114.18887
G0 F6000 X135.839 Y159.598
G1 F1200 X99.159 Y122.918 E115.91419
G0 F6000 X99.159 Y122.352
G1 F1200 X135.839 Y159.032 E117.6395
G0 F6000 X135.839 Y158.466
G1 F1200 X99.159 Y121.787 E119.36479
G0 F6000 X99.159 Y121.221
G1 F1200 X135.839 Y157.901 E121.09011
G0 F6000 X135.839 Y157.335
G1 F1200 X99.159 Y120.655 E122.81542
G0 F6000 X99.159 Y120.09
G1 F1200 X135.839 Y156.769 E124.54071
G0 F6000 X135.839 Y156.204
G1 F1200 X99.159 Y119.524 E126.26603
G0 F6000 X99.159 Y118.958
G1 F1200 X135.839 Y155.638 E127.99134
G0 F6000 X135.839 Y155.072
G1 F1200 X99.159 Y118.393 E129.71663
G0 F6000 X99.159 Y117.827
G1 F1200 X135.839 Y154.507 E131.44195
G0 F6000 X135.839 Y153.941
G1 F1200 X99.159 Y117.261 E133.16726
G0 F6000 X99.159 Y116.695
G1 F1200 X135.839 Y153.375 E134.89258
G0 F6000 X135.839 Y152.81
G1 F1200 X99.159 Y116.13 E136.61789
G0 F6000 X99.159 Y115.564
G1 F1200 X135.839 Y152.244 E138.34321
G0 F6000 X135.839 Y151.678
G1 F1200 X99.159 Y114.998 E140.06852
G0 F6000 X99.159 Y114.433
G1 F1200 X135.839 Y151.112 E141.79381
G0 F6000 X135.839 Y150.547
G1 F1200 X99.159 Y113.867 E143.51913
G0 F6000 X99.159 Y113.301
G1 F1200 X135.839 Y149.981 E145.24444
G0 F6000 X135.839 Y149.415
G1 F1200 X99.159 Y112.736 E146.96974
G0 F6000 X99.159 Y112.17
G1 F1200 X135.839 Y148.85 E148.69505
G0 F6000 X135.839 Y148.284
G1 F1200 X99.159 Y111.604 E150.42036
G0 F6000 X99.159 Y111.039
G1 F1200 X135.839 Y147.718 E152.14566
G0 F6000 X135.839 Y147.153
G1 F1200 X99.159 Y110.473 E153.87097
G0 F6000 X99.159 Y109.907
G1 F1200 X135.839 Y146.587 E155.59629
G0 F6000 X135.839 Y146.021
G1 F1200 X99.159 Y109.342 E157.32158
G0 F6000 X99.159 Y108.776
G1 F1200 X135.839 Y145.456 E159.04689
G0 F6000 X135.839 Y144.89
G1 F1200 X99.159 Y108.21 E160.77221
G0 F6000 X99.159 Y107.644
G1 F1200 X135.839 Y144.324 E162.49752
G0 F6000 X135.839 Y143.759
G1 F1200 X99.159 Y107.079 E164.22284
G0 F6000 X99.159 Y106.513
G1 F1200 X135.839 Y143.193 E165.94815
G0 F6000 X135.839 Y142.627
G1 F1200 X99.159 Y105.947 E167.67347
G0 F6000 X99.159 Y105.382
G1 F1200 X135.839 Y142.061 E169.39876
G0 F6000 X135.839 Y141.496
G1 F1200 X99.159 Y104.816 E171.12407
G0 F6000 X99.159 Y104.25
G1 F1200 X135.839 Y140.93 E172.84939
G0 F6000 X135.839 Y140.364
G1 F1200 X99.159 Y103.685 E174.57468
G0 F6000 X99.159 Y103.119
G1 F1200 X135.839 Y139.799 E176.29999
G0 F6000 X135.839 Y139.233
G1 F1200 X99.159 Y102.553 E178.02531
G0 F6000 X99.159 Y101.988
G1 F1200 X135.839 Y138.667 E179.7506
G0 F6000 X135.839 Y138.102
G1 F1200 X99.159 Y101.422 E181.47591
G0 F6000 X99.159 Y100.856
G1 F1200 X135.839 Y137.536 E183.20123
G0 F6000 X135.839 Y136.97
G1 F1200 X99.159 Y100.291 E184.92652
G0 F6000 X99.159 Y99.725
G1 F1200 X135.839 Y136.405 E186.65183
G0 F6000 X135.839 Y135.839
G1 F1200 X99.159 Y99.159 E188.37715
G0 F6000 X99.159 Y98.594
G1 F1200 X135.839 Y135.273 E190.10244
G0 F6000 X135.839 Y134.708
G1 F1200 X99.159 Y98.028 E191.82775
G0 F6000 X99.159 Y97.462
G1 F1200 X135.839 Y134.142 E193.55307
G0 F6000 X135.839 Y133.576
G1 F1200 X99.159 Y96.896 E195.27838
G0 F6000 X99.159 Y96.331
G1 F1200 X135.839 Y133.011 E197.0037
